actions/24/atmosphere.svg

<?xml version="1.0" encoding="UTF-8" standalone="no"?>
<svg
   width="24"
   height="24"
   version="1.1"
   id="svg9"
   sodipodi:docname="atmosphere.svg"
   inkscape:version="1.2.1 (9c6d41e410, 2022-07-14, custom)"
   xmlns:inkscape="http://www.inkscape.org/namespaces/inkscape"
   xmlns:sodipodi="http://sodipodi.sourceforge.net/DTD/sodipodi-0.dtd"
   xmlns="http://www.w3.org/2000/svg"
   xmlns:svg="http://www.w3.org/2000/svg">
  <sodipodi:namedview
     id="namedview11"
     pagecolor="#000000"
     bordercolor="#000000"
     borderopacity="0.25"
     inkscape:showpageshadow="2"
     inkscape:pageopacity="0"
     inkscape:pagecheckerboard="0"
     inkscape:deskcolor="#d1d1d1"
     showgrid="false"
     inkscape:zoom="33.458333"
     inkscape:cx="11.985056"
     inkscape:cy="11.955168"
     inkscape:window-width="1920"
     inkscape:window-height="1051"
     inkscape:window-x="0"
     inkscape:window-y="29"
     inkscape:window-maximized="1"
     inkscape:current-layer="g7" />
  <defs
     id="defs3">
    <style
       id="current-color-scheme"
       type="text/css">
   .ColorScheme-Text { color:#eeeeec; } .ColorScheme-Highlight { color:#367bf0; } .ColorScheme-NeutralText { color:#ffcc44; } .ColorScheme-PositiveText { color:#3db47e; } .ColorScheme-NegativeText { color:#dd4747; }
  </style>
  </defs>
  <g
     transform="matrix(1,0,0,1,4,4)"
     id="g7">
    <path
       style="fill:currentColor"
       class="ColorScheme-Text"
       d="m 3.0625,7.3164 c 0.225,0.2497 0.6516,0.2328 0.7499,0.5936 0.1804,0.1091 0.3604,0.28 0.4682,0.032 0.3715,0.3291 0.018,0.6686 -0.1605,0.9783 0.113,0.195 -0.1379,0.3922 0.1466,0.565 0.2007,0.4416 0.4316,0.7927 0.8877,0.9737 0.098,0.267 0.3637054,0.785877 0.3787054,1.073877 C 5.5061054,11.810877 5.3908,11.846 5.3114,12.129 5.1264,12.154 4.768,11.763 4.5519,11.585 3.4145,10.511 2.8069,8.8707 3.0625,7.3164 Z M 11.346,4.9727 c -0.07,0.438 0.312,-0.044 0,0 z m 0.06,-0.1563 c -0.129,0.1823 0.143,0.029 0,0 z m 0.563,0.4373 c -0.41,-0.1022 -0.175,0.2249 0,0 z M 11.406,4.66 c 0.227,0.109 0.58,0.5026 0.624,0.5531 0.06,-0.1337 0.378,0.4381 0.356,0.5293 -0.08,0.4928 -0.5,-0.1608 -0.785,-0.051 -0.166,-0.084 0.146,-0.4428 -0.21,-0.375 C 10.972,5.2054 10.596,5.5622 10.23,5.4489 10.3,5.2952 10.688,5.3105 10.737,5.0355 10.922,4.722 11.136,4.8098 11.406,4.66 Z M 4.625,4.5037 c 0.053,0.07 -0.5148,0.62 -0.2502,0.188 0.093,-0.068 0.1033,-0.2089 0.2502,-0.188 z m 0.25,-0.031 C 5.1501,4.5626 4.9857,4.6063 4.8118,4.7539 4.715,4.7055 4.766,4.4784 4.875,4.4727 Z M 4.6875,4.2852 c 0.2233,0.2406 -0.3839,0.2101 10e-5,0 z m 5.4685,-0.625 c -0.3189,0.059 -0.2381,0.5275 0.06,0.247 0.03,-0.1274 0.202,-0.2552 -0.06,-0.247 z M 5.9687,3.4727 C 5.8919,3.7914 5.4634,3.6326 5.4647,3.9778 4.9149,3.92 5.808,3.5373 5.9687,3.4727 Z M 8,3.0039 c 0.8027,0.01 1.6083,0.206 2.313,0.5935 0.134,0.1598 0.246,0.23 0.03,0.374 -0.02,0.3266 0.457,-0.052 0.617,0.03 -0.129,0.2547 -0.569,0.1669 -0.603,0.3404 0.44,0.038 0.213,0.5841 -0.151,0.3921 C 9.8734,4.6202 9.8218,5.1485 9.9364,5.3302 10.283,5.2847 10.057,5.6931 9.8545,5.7231 9.733,6.1636 9.2367,6.279 9.1146,6.7367 c 0.1044,0.2328 -0.07,0.513 -0.027,0.7329 -0.031,0.2589 0.3437,0.4109 0.4137,0.6531 0.3767,0.3764 0.8977,0.1642 1.3617,0.063 0.236,0.016 0.333,0.2583 0.595,0.2391 -0.01,0.2836 -0.08,0.6082 0.226,0.8291 0.294,0.3988 -0.334,0.7067 -0.21,1.0831 0.162,0.353 -0.01,0.919 0.06,1.112 0.179,0.01 -0.389,0.404 -0.517,0.525 C 9.6741,13.008 8.1569312,13.701616 6.5948312,13.007616 6.5298312,12.898616 6.4618,12.628 6.3504,12.39 6.6912,12.43 6.7204898,11.925085 6.4761898,11.736085 6.9182898,11.924085 7.0688,11.561 7.2548,11.326 7.0969,10.813 8.0286,11.028 7.9737,10.497 7.832,10.046 8.2799,9.802 8.3336,9.4159 8.1511,8.972 7.5477,9.1102 7.2532,8.8415 6.7732,8.8765 6.9589,8.161 6.4566,8.2227 6.0549,8.2416 5.9922,7.6334 5.6598,7.8038 5.4615,7.8523 5.178,7.6347 4.9966,7.6952 5.0485,7.472 4.5257,7.9385 4.4515,7.9464 4.2234,7.9155 3.7706,7.9483 3.9372,7.5352 4.2129,7.1099 3.1833,7.4562 3.6554,7.0349 3.8484,6.664 3.3853,6.7277 3.2804,7.0047 2.8842,7.1122 3.3393,6.3995 3.3655,6.1735 3.4148,5.8935 3.6686,6.1117 3.8458,5.9416 4.1234,5.9334 4.2515,6.0168 4.2627,6.2525 4.6848,6.472 4.1809,5.7326 4.6247,5.7213 4.8519,5.6112 5.1336,5.4587 5.1084,5.2149 5.35,5.0376 5.6814,4.9507 5.8304,4.7101 6.0482,4.678 6.2478,4.4429 6.1838,4.7265 6.4159,4.634 6.9425,4.4039 6.47,4.4887 6.2278,4.4526 6.6334,4.1336 6.2835,4.1911 6.4604,3.9474 6.654,4.3307 6.658,4.1062 6.8701,4.1368 7.3455,3.8545 6.9818,4.2034 6.7059,4.3978 7.3296,4.3627 7.3571,4.3962 7.3532,4.2316 7.3468,4.1705 7.1918,4.1298 7.5227,3.8019 7.0067,3.706 7.0539,3.3877 7.0793,3.01 6.4457,3.6349 6.6601,3.1923 7.0962,3.0772 7.5481,3.0109 8,3.0039 Z M 8,1 C 4.134,0.9999 1,4.134 1,8 c 0,3.866 3.134,7 7,7 3.866,0 7,-3.134 7,-7 C 15,4.134 11.866,0.9999 8,1 Z"
       id="path5"
       sodipodi:nodetypes="cccccccccccccccccccccccccccccccccccccccccccccccccccccccccccccccccccccccccccccccccccccccsssc" />
  </g>
</svg>

<svg xmlns="http://www.w3.org/2000/svg" width="24" height="24" version="1.1">
 <defs>
  <style id="current-color-scheme" type="text/css">
   .ColorScheme-Text { color:#eeeeec; } .ColorScheme-Highlight { color:#367bf0; } .ColorScheme-NeutralText { color:#ffcc44; } .ColorScheme-PositiveText { color:#3db47e; } .ColorScheme-NegativeText { color:#dd4747; }
  </style>
 </defs>
 <g transform="matrix(1,0,0,1,4,4)">
  <path style="fill:currentColor" class="ColorScheme-Text" d="M 3.0625,7.3164 C 3.2875,7.5661 3.7141,7.5492 3.8124,7.91 3.9928,8.0191 4.1728,8.19 4.2806,7.942 4.6521,8.2711 4.2986,8.6106 4.1201,8.9203 4.2331,9.1153 3.9822,9.3125 4.2667,9.4853 4.4674,9.9269 4.6983,10.278 5.1544,10.459 5.2524,10.726 5.2344,11.032 5.2494,11.32 5.2224,11.598 5.3908,11.846 5.3114,12.129 5.1264,12.154 4.768,11.763 4.5519,11.585 3.4145,10.511 2.8069,8.8707 3.0625,7.3164 Z M 11.346,4.9727 C 11.276,5.4107 11.658,4.9287 11.346,4.9727 Z M 11.406,4.8164 C 11.277,4.9987 11.549,4.8454 11.406,4.8164 Z M 11.969,5.2537 C 11.559,5.1515 11.794,5.4786 11.969,5.2537 Z M 11.406,4.66 C 11.633,4.769 11.986,5.1626 12.03,5.2131 12.09,5.0794 12.408,5.6512 12.386,5.7424 12.306,6.2352 11.886,5.5816 11.601,5.6914 11.435,5.6074 11.747,5.2486 11.391,5.3164 10.972,5.2054 10.596,5.5622 10.23,5.4489 10.3,5.2952 10.688,5.3105 10.737,5.0355 10.922,4.722 11.136,4.8098 11.406,4.66 Z M 4.625,4.5037 C 4.678,4.5737 4.1102,5.1237 4.3748,4.6917 4.4678,4.6237 4.4781,4.4828 4.625,4.5037 Z M 4.875,4.4727 C 5.1501,4.5626 4.9857,4.6063 4.8118,4.7539 4.715,4.7055 4.766,4.4784 4.875,4.4727 Z M 4.6875,4.2852 C 4.9108,4.5258 4.3036,4.4953 4.6876,4.2852 Z M 10.156,3.6602 C 9.8371,3.7192 9.9179,4.1877 10.216,3.9072 10.246,3.7798 10.418,3.652 10.156,3.6602 Z M 5.9687,3.4727 C 5.8919,3.7914 5.4634,3.6326 5.4647,3.9778 4.9149,3.92 5.808,3.5373 5.9687,3.4727 Z M 8,3.0039 C 8.8027,3.0139 9.6083,3.2099 10.313,3.5974 10.447,3.7572 10.559,3.8274 10.343,3.9714 10.323,4.298 10.8,3.9194 10.96,4.0014 10.831,4.2561 10.391,4.1683 10.357,4.3418 10.797,4.3798 10.57,4.9259 10.206,4.7339 9.8734,4.6202 9.8218,5.1485 9.9364,5.3302 10.283,5.2847 10.057,5.6931 9.8545,5.7231 9.733,6.1636 9.2367,6.279 9.1146,6.7367 9.219,6.9695 9.0446,7.2497 9.0876,7.4696 9.0566,7.7285 9.4313,7.8805 9.5013,8.1227 9.878,8.4991 10.399,8.2869 10.863,8.1857 11.099,8.2017 11.196,8.444 11.458,8.4248 11.448,8.7084 11.378,9.033 11.684,9.2539 11.978,9.6527 11.35,9.9606 11.474,10.337 11.636,10.69 11.464,11.256 11.534,11.449 11.713,11.459 11.145,11.853 11.017,11.974 9.6741,13.008 7.756,13.302 6.1939,12.608 6.1289,12.499 6.4618,12.628 6.3504,12.39 6.6912,12.43 6.8132,12.144 6.5689,11.955 7.011,12.143 7.0688,11.561 7.2548,11.326 7.0969,10.813 8.0286,11.028 7.9737,10.497 7.832,10.046 8.2799,9.802 8.3336,9.4159 8.1511,8.972 7.5477,9.1102 7.2532,8.8415 6.7732,8.8765 6.9589,8.161 6.4566,8.2227 6.0549,8.2416 5.9922,7.6334 5.6598,7.8038 5.4615,7.8523 5.178,7.6347 4.9966,7.6952 5.0485,7.472 4.5257,7.9385 4.4515,7.9464 4.2234,7.9155 3.7706,7.9483 3.9372,7.5352 4.2129,7.1099 3.1833,7.4562 3.6554,7.0349 3.8484,6.664 3.3853,6.7277 3.2804,7.0047 2.8842,7.1122 3.3393,6.3995 3.3655,6.1735 3.4148,5.8935 3.6686,6.1117 3.8458,5.9416 4.1234,5.9334 4.2515,6.0168 4.2627,6.2525 4.6848,6.472 4.1809,5.7326 4.6247,5.7213 4.8519,5.6112 5.1336,5.4587 5.1084,5.2149 5.35,5.0376 5.6814,4.9507 5.8304,4.7101 6.0482,4.678 6.2478,4.4429 6.1838,4.7265 6.4159,4.634 6.9425,4.4039 6.47,4.4887 6.2278,4.4526 6.6334,4.1336 6.2835,4.1911 6.4604,3.9474 6.654,4.3307 6.658,4.1062 6.8701,4.1368 7.3455,3.8545 6.9818,4.2034 6.7059,4.3978 7.3296,4.3627 7.3571,4.3962 7.3532,4.2316 7.3468,4.1705 7.1918,4.1298 7.5227,3.8019 7.0067,3.706 7.0539,3.3877 7.0793,3.01 6.4457,3.6349 6.6601,3.1923 7.0962,3.0772 7.5481,3.0109 8,3.0039 Z M 8,1 C 4.134,0.9999 1,4.134 1,8 1,11.866 4.134,15 8,15 11.866,15 15,11.866 15,8 15,4.134 11.866,0.9999 8,1 Z"/>
 </g>
</svg>
